X:11778
T:Marsch Eb (mr02248)
S:Hanny Christen. Bd.II  St. Gallen II, Graubünden, Tessin. S.396 (mr02248) orig. Eb
S:Bündner Tänze. S.384-402. Zusammenstellung von Hanny Christen. 
O:Switzerland
%%MIDI program 21
R:Marsch
M:2/4
L:1/8
K:Eb %%MIDI gchordon
"Eb"E2GB | e2zE/G/ [P:A] || "Eb"BB Bc | B>B Be | "Bb7"d>d df | "Eb"e>e eE/G/ | BB Bc | 
B>B Be | "Bb"dd "F7"cc | "Bb"B2zB [P:B] || "Bb7"f>e fd | "Eb"e2zB | "Bb7"f>e fd | "Eb"e2ze | "Ab"ee dc | 
"Eb"B>c Bc/B/ | "Bb7"A>A AB | "Eb"G/A/B/c/ Be | "Ab"ee dc | "Eb/Bb"B>c Be | "Bb7"f>e fd | "Eb"e2z2 |] 
% mr02248
% Dez 4, 2016

